storage/app/icons/phosphoricons/light/bag-simple-light.svg

<svg xmlns="http://www.w3.org/2000/svg" fill="currentColor" viewBox="0 0 256 256"><path d="M216 66h-42v-2a46 46 0 0 0-92 0v2H40a14 14 0 0 0-14 14v120a14 14 0 0 0 14 14h176a14 14 0 0 0 14-14V80a14 14 0 0 0-14-14M94 64a34 34 0 0 1 68 0v2H94Zm124 136a2 2 0 0 1-2 2H40a2 2 0 0 1-2-2V80a2 2 0 0 1 2-2h176a2 2 0 0 1 2 2Z"/></svg>

<svg xmlns="http://www.w3.org/2000/svg" viewBox="0 0 256 256" fill="currentColor"><path d="M216,66H174V64a46,46,0,0,0-92,0v2H40A14,14,0,0,0,26,80V200a14,14,0,0,0,14,14H216a14,14,0,0,0,14-14V80A14,14,0,0,0,216,66ZM94,64a34,34,0,0,1,68,0v2H94ZM218,200a2,2,0,0,1-2,2H40a2,2,0,0,1-2-2V80a2,2,0,0,1,2-2H216a2,2,0,0,1,2,2Z"/></svg>
